icons/linear-ele-other-prize-trophy.svg

<svg xmlns="http://www.w3.org/2000/svg" width="32px" height="32px" viewBox="0 0 32 32" version="1.1">
    <title>linear-ele-other-prize-trophy</title>
    <g id="linear-ele-other-prize-trophy" stroke-width="1" fill-rule="evenodd">
        <path d="M12,26 C11.4477153,26 11,25.5522847 11,25 C11,24.4477153 11.4477153,24 12,24 L15,24 L15.0000487,19.9381123 C12.4453503,19.6195618 10.264727,18.0964548 9.04446566,15.9550782 C5.03563799,15.4249193 3,12.3096218 3,7 C3,6.44771525 3.44771525,6 4,6 L8,6 L8,3 C8,2.44771525 8.44771525,2 9,2 L23,2 C23.5522847,2 24,2.44771525 24,3 L24,6 L28,6 C28.5522847,6 29,6.44771525 29,7 C29,12.3096218 26.964362,15.4249193 22.9559278,15.9552191 C21.7354328,18.0961743 19.5552209,19.6191629 17.0009551,19.9379871 L17,24 L20,24 C20.5522847,24 21,24.4477153 21,25 C21,25.5522847 20.5522847,26 20,26 L12,26 Z M22,4 L10,4 L10,12 C10,15.2383969 12.5655749,17.8775718 15.7750617,17.9958615 L16,18 C19.3137085,18 22,15.3137085 22,12 L22,4 Z M26.972,8 L24,8 L24,12 C24,12.5842587 23.937368,13.1538888 23.8184519,13.7025427 C25.7147827,13.0151196 26.7527367,11.2399421 26.9608154,8.20419713 L26.972,8 Z M8,8 L5.027,8 L5.03918455,8.20419713 C5.24724757,11.2397128 6.28506043,13.0148513 8.18048817,13.7028433 C8.06255562,13.1531942 8,12.5839024 8,12 L8,8 Z M24,28 C24.5522847,28 25,28.4477153 25,29 C25,29.5522847 24.5522847,30 24,30 L8,30 C7.44771525,30 7,29.5522847 7,29 C7,28.4477153 7.44771525,28 8,28 L24,28 Z" id="&#24418;&#29366;" fill-rule="nonzero" />
    </g>
</svg>

<svg xmlns="http://www.w3.org/2000/svg" viewBox="0 0 32 32"><path fill="currentColor" d="M12 26a1 1 0 0 1 0-2h3v-4.062a8.004 8.004 0 0 1-5.956-3.983C5.036 15.425 3 12.31 3 7a1 1 0 0 1 1-1h4V3a1 1 0 0 1 1-1h14a1 1 0 0 1 1 1v3h4a1 1 0 0 1 1 1c0 5.31-2.036 8.425-6.044 8.955A8.005 8.005 0 0 1 17 19.938L17 24h3a1 1 0 0 1 0 2zM22 4H10v8a6 6 0 0 0 5.775 5.996L16 18a6 6 0 0 0 6-6zm4.972 4H24v4a8.03 8.03 0 0 1-.182 1.703c1.897-.688 2.935-2.463 3.143-5.499zM8 8H5.027l.012.204c.208 3.036 1.246 4.81 3.141 5.499A8.107 8.107 0 0 1 8 12zm16 20a1 1 0 0 1 0 2H8a1 1 0 0 1 0-2z"/></svg>
